Newaita-dark/devices/48/network-vpn.svg

<svg height="48pt" viewBox="0 0 48 48" width="48pt" xmlns="http://www.w3.org/2000/svg" xmlns:xlink="http://www.w3.org/1999/xlink"><linearGradient id="a"><stop offset="0" stop-opacity=".313725"/><stop offset=".222222" stop-opacity=".27451"/><stop offset="1" stop-opacity="0"/></linearGradient><radialGradient id="b" cx="450.90894" cy="189.57936" gradientTransform="matrix(.00000026 -.102549 -.210958 -.00000013 64.304021 88.973266)" gradientUnits="userSpaceOnUse" r="21.166656" xlink:href="#a"/><radialGradient id="c" cx="450.90894" cy="189.57936" gradientTransform="matrix(-.00000026 .102549 .210958 .00000013 -16.674471 -4.375345)" gradientUnits="userSpaceOnUse" r="21.166656" xlink:href="#a"/><radialGradient id="d" cx="450.90894" cy="189.57936" gradientTransform="matrix(-.00000026 -.102549 .210958 -.00000013 -16.674471 88.973266)" gradientUnits="userSpaceOnUse" r="21.166656" xlink:href="#a"/><radialGradient id="e" cx="450.90894" cy="189.57936" gradientTransform="matrix(.00000026 .102549 -.210958 .00000013 64.304018 -4.375346)" gradientUnits="userSpaceOnUse" r="21.166656" xlink:href="#a"/><linearGradient id="f" gradientTransform="matrix(.0200401 0 0 .082039 18.698077 23.142854)" gradientUnits="userSpaceOnUse" x1="255.32306" x2="255.32304" y1="233.5" y2="254.66666"><stop offset="0" stop-opacity=".27451"/><stop offset="1" stop-opacity="0"/></linearGradient><linearGradient id="g" gradientUnits="userSpaceOnUse" x1="23.814786" x2="23.814786" y1="42.0509015" y2="4.34415668747"><stop offset="0" stop-color="#26c6da"/><stop offset="1" stop-color="#4dd0e1"/></linearGradient><linearGradient id="h" gradientUnits="userSpaceOnUse" x1="23.814786" x2="23.814786" y1="42.0509015" y2="4.34415668747"><stop offset="0" stop-color="#bdbdbd"/><stop offset="1" stop-color="#e0e0e0"/></linearGradient><linearGradient id="i" gradientUnits="userSpaceOnUse" x1="23.814816" x2="23.814816" xlink:href="#a" y1="4.34417271465" y2="42.05096669922"/><path d="m24.808594 42.300781h3.96875v-1.738281h-3.96875zm0 0" fill="url(#b)"/><path d="m22.824219 42.300781h-3.972657v1.734375h3.972657zm0 0" fill="url(#c)"/><path d="m22.824219 42.300781h-3.972657v-1.738281h3.972657zm0 0" fill="url(#d)"/><path d="m24.808594 42.300781h3.96875v1.734375h-3.96875zm0 0" fill="url(#e)"/><path d="m22.824219 41.863281h1.984375v2.171875h-1.984375zm0 0" fill="url(#f)"/><path d="m23.816406 4.34375c12.898438 0 17.859375 2.976562 17.859375 5.953125 0 14.886719-10.914062 31.753906-17.859375 31.753906-6.949218 0-17.863281-16.867187-17.863281-31.753906 0-2.976563 5.953125-5.953125 17.863281-5.953125zm0 0" fill="url(#g)"/><path d="m23.816406 4.34375c-11.910156 0-17.863281 2.976562-17.863281 5.953125 0 14.886719 10.914063 31.753906 17.863281 31.753906 6.945313 0 17.859375-16.867187 17.859375-31.753906 0-2.976563-4.960937-5.953125-17.859375-5.953125zm0 1.984375c11.550782 0 15.992188 2.667969 15.992188 5.332031 0 13.328125-9.773438 28.433594-15.992188 28.433594-6.222656 0-15.996094-15.105469-15.996094-28.433594 0-2.664062 5.332032-5.332031 15.996094-5.332031zm0 0" fill="url(#h)"/><path d="m41.667969 10.070312c-.3125 14.722657-11.007813 31.097657-17.851563 31.097657s-17.535156-16.367188-17.855468-31.082031c-.003907.058593-.007813.121093-.007813.179687 0 14.882813 10.914063 31.753906 17.863281 31.753906 6.945313 0 17.859375-16.871093 17.859375-31.753906 0-.066406-.003906-.128906-.007812-.195313zm0 0" fill-opacity=".235294"/><path d="m23.816406 4.34375c-11.910156 0-17.863281 2.976562-17.863281 5.953125 0 .132813 0 .261719.003906.394531.136719-2.945312 6.089844-5.851562 17.859375-5.851562 12.734375 0 17.734375 2.902344 17.855469 5.84375.003906-.128906.003906-.257813.003906-.386719 0-2.976563-4.960937-5.953125-17.859375-5.953125zm0 0" fill="#fff" fill-opacity=".392157"/><path d="m23.816406 4.203125c-5.96875 0-10.445312.746094-13.445312 1.871094-1.5.5625-2.632813 1.21875-3.398438 1.933593-.761718.71875-1.160156 1.5-1.160156 2.289063 0 7.476563 2.738281 15.433594 6.347656 21.53125 1.800782 3.046875 3.824219 5.632813 5.839844 7.457031 2.011719 1.828125 4.019531 2.90625 5.816406 2.90625 1.792969 0 3.800782-1.078125 5.8125-2.90625 2.015625-1.824218 4.039063-4.410156 5.84375-7.457031 3.605469-6.097656 6.34375-14.054687 6.34375-21.53125 0-.78125-.328125-1.5625-1.015625-2.28125s-1.726562-1.378906-3.167969-1.941406c-2.878906-1.128907-7.355468-1.871094-13.816406-1.871094zm0 .28125c6.4375 0 10.890625.746094 13.714844 1.851563 1.414062.550781 2.417969 1.195312 3.066406 1.871093.648438.679688.9375 1.386719.9375 2.089844 0 7.410156-2.71875 15.328125-6.304687 21.386719-1.792969 3.03125-3.804688 5.59375-5.789063 7.394531s-3.945312 2.832031-5.625 2.832031c-1.679687 0-3.640625-1.03125-5.628906-2.832031-1.984375-1.800781-3.996094-4.363281-5.785156-7.394531-3.585938-6.058594-6.308594-13.976563-6.308594-21.386719 0-.695313.347656-1.402344 1.074219-2.082031.722656-.679688 1.824219-1.324219 3.300781-1.878906 2.953125-1.105469 7.402344-1.851563 13.347656-1.851563zm0 1.703125c-5.34375 0-9.355468.667969-12.046875 1.675781-1.34375.503907-2.359375 1.09375-3.042969 1.738281-.6875.640626-1.046874 1.34375-1.046874 2.058594 0 6.699219 2.453124 13.824219 5.683593 19.285156 1.617188 2.730469 3.429688 5.046876 5.234375 6.683594 1.804688 1.636719 3.605469 2.605469 5.21875 2.605469 1.609375 0 3.410156-.96875 5.214844-2.605469 1.804688-1.636718 3.617188-3.953125 5.234375-6.683594 3.230469-5.460937 5.683594-12.585937 5.683594-19.285156 0-.707031-.296875-1.410156-.914063-2.054687-.617187-.644531-1.550781-1.238281-2.839844-1.742188-2.582031-1.007812-6.59375-1.675781-12.378906-1.675781zm0 .28125c5.761719 0 9.746094.667969 12.273438 1.65625 1.265625.496094 2.164062 1.070312 2.742187 1.675781.578125.601563.835938 1.230469.835938 1.859375 0 6.628906-2.4375 13.71875-5.644531 19.140625-1.605469 2.714844-3.402344 5.007813-5.179688 6.617188-1.777344 1.613281-3.53125 2.535156-5.027344 2.535156-1.5 0-3.253906-.921875-5.03125-2.535156-1.777344-1.609375-3.574218-3.902344-5.179687-6.617188-3.207031-5.421875-5.644531-12.511719-5.644531-19.140625 0-.621094.308593-1.25.957031-1.855468.644531-.605469 1.628906-1.183594 2.953125-1.679688 2.640625-.988281 6.625-1.65625 11.945312-1.65625zm0 0" fill="#212121"/><path d="m23.816406 11.289062c-3.300781 0-5.957031 2.65625-5.957031 5.953126 0 2.601562 1.652344 4.804687 3.972656 5.617187v7.285156c0 1.097657.84375 1.984375 1.890625 1.984375h.183594c1.050781 0 1.894531-.886718 1.894531-1.984375v-7.285156c2.316407-.8125 3.96875-3.015625 3.96875-5.617187 0-3.296876-2.65625-5.953126-5.953125-5.953126zm0 0" fill="url(#i)"/><path d="m23.816406 11.289062c-3.300781 0-5.957031 2.65625-5.957031 5.953126 0 .167968.007813.335937.023437.5.25-3.066407 2.800782-5.460938 5.933594-5.460938 3.128906 0 5.679688 2.394531 5.929688 5.460938.015625-.164063.023437-.332032.023437-.5 0-3.296876-2.65625-5.953126-5.953125-5.953126zm0 0" fill-opacity=".235294"/><path d="m17.882812 17.582031c-.015624.164063-.023437.328125-.023437.496094 0 2.601563 1.652344 4.800781 3.972656 5.617187v-.992187c-2.167969-.761719-3.753906-2.738281-3.949219-5.121094zm11.863282 0c-.191406 2.382813-1.777344 4.359375-3.945313 5.121094v.992187c2.316407-.816406 3.96875-3.015624 3.96875-5.617187 0-.167969-.007812-.332031-.023437-.496094zm-7.914063 12.402344v.992187c0 1.097657.84375 1.984376 1.890625 1.984376h.183594c1.050781 0 1.894531-.886719 1.894531-1.984376v-.992187c0 1.097656-.84375 1.984375-1.894531 1.984375h-.183594c-1.046875 0-1.890625-.886719-1.890625-1.984375zm0 0" fill="#fff" fill-opacity=".392157"/><path d="m960.065811 455.074659c-133.058162 0-240.134552 107.07639-240.134552 239.977086 0 104.871876 66.607813 193.682294 160.14219 226.435072v293.672747c0 44.247744 34.0125 79.992362 76.213195 79.992362h7.400868c42.35816 0 76.370661-35.744618 76.370661-79.992362v-293.672747c93.376911-32.752778 159.984724-121.563196 159.984724-226.435072 0-132.900696-107.07639-239.977086-239.977086-239.977086zm0 0" fill="none" stroke="#212121" stroke-linecap="round" stroke-linejoin="round" stroke-width="11.338583" transform="scale(.0248071)"/></svg>

<?xml version="1.0" encoding="UTF-8"?>
<svg xmlns="http://www.w3.org/2000/svg" xmlns:xlink="http://www.w3.org/1999/xlink" width="48pt" height="48pt" viewBox="0 0 48 48" version="1.1">
<defs>
<radialGradient id="radial0" gradientUnits="userSpaceOnUse" cx="450.90894" cy="189.57936" fx="450.90894" fy="189.57936" r="21.166656" gradientTransform="matrix(0.000000261256,-0.102549,-0.210958,-0.000000133269,64.304021,88.973266)">
<stop offset="0" style="stop-color:rgb(0%,0%,0%);stop-opacity:0.313725;"/>
<stop offset="0.222222" style="stop-color:rgb(0%,0%,0%);stop-opacity:0.27451;"/>
<stop offset="1" style="stop-color:rgb(0%,0%,0%);stop-opacity:0;"/>
</radialGradient>
<radialGradient id="radial1" gradientUnits="userSpaceOnUse" cx="450.90894" cy="189.57936" fx="450.90894" fy="189.57936" r="21.166656" gradientTransform="matrix(-0.000000261256,0.102549,0.210958,0.000000133269,-16.674471,-4.375345)">
<stop offset="0" style="stop-color:rgb(0%,0%,0%);stop-opacity:0.313725;"/>
<stop offset="0.222222" style="stop-color:rgb(0%,0%,0%);stop-opacity:0.27451;"/>
<stop offset="1" style="stop-color:rgb(0%,0%,0%);stop-opacity:0;"/>
</radialGradient>
<radialGradient id="radial2" gradientUnits="userSpaceOnUse" cx="450.90894" cy="189.57936" fx="450.90894" fy="189.57936" r="21.166656" gradientTransform="matrix(-0.000000261256,-0.102549,0.210958,-0.000000133269,-16.674471,88.973266)">
<stop offset="0" style="stop-color:rgb(0%,0%,0%);stop-opacity:0.313725;"/>
<stop offset="0.222222" style="stop-color:rgb(0%,0%,0%);stop-opacity:0.27451;"/>
<stop offset="1" style="stop-color:rgb(0%,0%,0%);stop-opacity:0;"/>
</radialGradient>
<radialGradient id="radial3" gradientUnits="userSpaceOnUse" cx="450.90894" cy="189.57936" fx="450.90894" fy="189.57936" r="21.166656" gradientTransform="matrix(0.000000261256,0.102549,-0.210958,0.000000133269,64.304018,-4.375346)">
<stop offset="0" style="stop-color:rgb(0%,0%,0%);stop-opacity:0.313725;"/>
<stop offset="0.222222" style="stop-color:rgb(0%,0%,0%);stop-opacity:0.27451;"/>
<stop offset="1" style="stop-color:rgb(0%,0%,0%);stop-opacity:0;"/>
</radialGradient>
<linearGradient id="linear0" gradientUnits="userSpaceOnUse" x1="255.32306" y1="233.5" x2="255.32304" y2="254.66666" gradientTransform="matrix(0.0200401,0,0,0.082039,18.698077,23.142854)">
<stop offset="0" style="stop-color:rgb(0%,0%,0%);stop-opacity:0.27451;"/>
<stop offset="1" style="stop-color:rgb(0%,0%,0%);stop-opacity:0;"/>
</linearGradient>
<linearGradient id="linear1" gradientUnits="userSpaceOnUse" x1="254" y1="233.5" x2="254" y2="-168.66667" gradientTransform="matrix(0.093759,0,0,0.093759,0,20.158175)">
<stop offset="0" style="stop-color:rgb(14.901961%,77.647059%,85.490196%);stop-opacity:1;"/>
<stop offset="1" style="stop-color:rgb(30.196078%,81.568627%,88.235294%);stop-opacity:1;"/>
</linearGradient>
<linearGradient id="linear2" gradientUnits="userSpaceOnUse" x1="254" y1="233.5" x2="254" y2="-168.66667" gradientTransform="matrix(0.093759,0,0,0.093759,0,20.158175)">
<stop offset="0" style="stop-color:rgb(74.117647%,74.117647%,74.117647%);stop-opacity:1;"/>
<stop offset="1" style="stop-color:rgb(87.843137%,87.843137%,87.843137%);stop-opacity:1;"/>
</linearGradient>
<linearGradient id="linear3" gradientUnits="userSpaceOnUse" x1="960" y1="175.11812" x2="960" y2="1695.1182" gradientTransform="matrix(0.0248071,0,0,0.0248071,0,0)">
<stop offset="0" style="stop-color:rgb(0%,0%,0%);stop-opacity:0.313725;"/>
<stop offset="0.222222" style="stop-color:rgb(0%,0%,0%);stop-opacity:0.27451;"/>
<stop offset="1" style="stop-color:rgb(0%,0%,0%);stop-opacity:0;"/>
</linearGradient>
</defs>
<g id="surface1">
<path style=" stroke:none;fill-rule:nonzero;fill:url(#radial0);" d="M 24.808594 42.300781 L 28.777344 42.300781 L 28.777344 40.5625 L 24.808594 40.5625 Z M 24.808594 42.300781 "/>
<path style=" stroke:none;fill-rule:nonzero;fill:url(#radial1);" d="M 22.824219 42.300781 L 18.851562 42.300781 L 18.851562 44.035156 L 22.824219 44.035156 Z M 22.824219 42.300781 "/>
<path style=" stroke:none;fill-rule:nonzero;fill:url(#radial2);" d="M 22.824219 42.300781 L 18.851562 42.300781 L 18.851562 40.5625 L 22.824219 40.5625 Z M 22.824219 42.300781 "/>
<path style=" stroke:none;fill-rule:nonzero;fill:url(#radial3);" d="M 24.808594 42.300781 L 28.777344 42.300781 L 28.777344 44.035156 L 24.808594 44.035156 Z M 24.808594 42.300781 "/>
<path style=" stroke:none;fill-rule:nonzero;fill:url(#linear0);" d="M 22.824219 41.863281 L 24.808594 41.863281 L 24.808594 44.035156 L 22.824219 44.035156 Z M 22.824219 41.863281 "/>
<path style=" stroke:none;fill-rule:nonzero;fill:url(#linear1);" d="M 23.816406 4.34375 C 36.714844 4.34375 41.675781 7.320312 41.675781 10.296875 C 41.675781 25.183594 30.761719 42.050781 23.816406 42.050781 C 16.867188 42.050781 5.953125 25.183594 5.953125 10.296875 C 5.953125 7.320312 11.90625 4.34375 23.816406 4.34375 Z M 23.816406 4.34375 "/>
<path style=" stroke:none;fill-rule:nonzero;fill:url(#linear2);" d="M 23.816406 4.34375 C 11.90625 4.34375 5.953125 7.320312 5.953125 10.296875 C 5.953125 25.183594 16.867188 42.050781 23.816406 42.050781 C 30.761719 42.050781 41.675781 25.183594 41.675781 10.296875 C 41.675781 7.320312 36.714844 4.34375 23.816406 4.34375 Z M 23.816406 6.328125 C 35.367188 6.328125 39.808594 8.996094 39.808594 11.660156 C 39.808594 24.988281 30.035156 40.09375 23.816406 40.09375 C 17.59375 40.09375 7.820312 24.988281 7.820312 11.660156 C 7.820312 8.996094 13.152344 6.328125 23.816406 6.328125 Z M 23.816406 6.328125 "/>
<path style=" stroke:none;fill-rule:nonzero;fill:rgb(0%,0%,0%);fill-opacity:0.235294;" d="M 41.667969 10.070312 C 41.355469 24.792969 30.660156 41.167969 23.816406 41.167969 C 16.972656 41.167969 6.28125 24.800781 5.960938 10.085938 C 5.957031 10.144531 5.953125 10.207031 5.953125 10.265625 C 5.953125 25.148438 16.867188 42.019531 23.816406 42.019531 C 30.761719 42.019531 41.675781 25.148438 41.675781 10.265625 C 41.675781 10.199219 41.671875 10.136719 41.667969 10.070312 Z M 41.667969 10.070312 "/>
<path style=" stroke:none;fill-rule:nonzero;fill:rgb(100%,100%,100%);fill-opacity:0.392157;" d="M 23.816406 4.34375 C 11.90625 4.34375 5.953125 7.320312 5.953125 10.296875 C 5.953125 10.429688 5.953125 10.558594 5.957031 10.691406 C 6.09375 7.746094 12.046875 4.839844 23.816406 4.839844 C 36.550781 4.839844 41.550781 7.742188 41.671875 10.683594 C 41.675781 10.554688 41.675781 10.425781 41.675781 10.296875 C 41.675781 7.320312 36.714844 4.34375 23.816406 4.34375 Z M 23.816406 4.34375 "/>
<path style=" stroke:none;fill-rule:nonzero;fill:rgb(12.941176%,12.941176%,12.941176%);fill-opacity:1;" d="M 23.816406 4.203125 C 17.847656 4.203125 13.371094 4.949219 10.371094 6.074219 C 8.871094 6.636719 7.738281 7.292969 6.972656 8.007812 C 6.210938 8.726562 5.8125 9.507812 5.8125 10.296875 C 5.8125 17.773438 8.550781 25.730469 12.160156 31.828125 C 13.960938 34.875 15.984375 37.460938 18 39.285156 C 20.011719 41.113281 22.019531 42.191406 23.816406 42.191406 C 25.609375 42.191406 27.617188 41.113281 29.628906 39.285156 C 31.644531 37.460938 33.667969 34.875 35.472656 31.828125 C 39.078125 25.730469 41.816406 17.773438 41.816406 10.296875 C 41.816406 9.515625 41.488281 8.734375 40.800781 8.015625 C 40.113281 7.296875 39.074219 6.636719 37.632812 6.074219 C 34.753906 4.945312 30.277344 4.203125 23.816406 4.203125 Z M 23.816406 4.484375 C 30.253906 4.484375 34.707031 5.230469 37.53125 6.335938 C 38.945312 6.886719 39.949219 7.53125 40.597656 8.207031 C 41.246094 8.886719 41.535156 9.59375 41.535156 10.296875 C 41.535156 17.707031 38.816406 25.625 35.230469 31.683594 C 33.4375 34.714844 31.425781 37.277344 29.441406 39.078125 C 27.457031 40.878906 25.496094 41.910156 23.816406 41.910156 C 22.136719 41.910156 20.175781 40.878906 18.1875 39.078125 C 16.203125 37.277344 14.191406 34.714844 12.402344 31.683594 C 8.816406 25.625 6.09375 17.707031 6.09375 10.296875 C 6.09375 9.601562 6.441406 8.894531 7.167969 8.214844 C 7.890625 7.535156 8.992188 6.890625 10.46875 6.335938 C 13.421875 5.230469 17.871094 4.484375 23.816406 4.484375 Z M 23.816406 6.1875 C 18.472656 6.1875 14.460938 6.855469 11.769531 7.863281 C 10.425781 8.367188 9.410156 8.957031 8.726562 9.601562 C 8.039062 10.242188 7.679688 10.945312 7.679688 11.660156 C 7.679688 18.359375 10.132812 25.484375 13.363281 30.945312 C 14.980469 33.675781 16.792969 35.992188 18.597656 37.628906 C 20.402344 39.265625 22.203125 40.234375 23.816406 40.234375 C 25.425781 40.234375 27.226562 39.265625 29.03125 37.628906 C 30.835938 35.992188 32.648438 33.675781 34.265625 30.945312 C 37.496094 25.484375 39.949219 18.359375 39.949219 11.660156 C 39.949219 10.953125 39.652344 10.25 39.035156 9.605469 C 38.417969 8.960938 37.484375 8.367188 36.195312 7.863281 C 33.613281 6.855469 29.601562 6.1875 23.816406 6.1875 Z M 23.816406 6.46875 C 29.578125 6.46875 33.5625 7.136719 36.089844 8.125 C 37.355469 8.621094 38.253906 9.195312 38.832031 9.800781 C 39.410156 10.402344 39.667969 11.03125 39.667969 11.660156 C 39.667969 18.289062 37.230469 25.378906 34.023438 30.800781 C 32.417969 33.515625 30.621094 35.808594 28.84375 37.417969 C 27.066406 39.03125 25.3125 39.953125 23.816406 39.953125 C 22.316406 39.953125 20.5625 39.03125 18.785156 37.417969 C 17.007812 35.808594 15.210938 33.515625 13.605469 30.800781 C 10.398438 25.378906 7.960938 18.289062 7.960938 11.660156 C 7.960938 11.039062 8.269531 10.410156 8.917969 9.804688 C 9.5625 9.199219 10.546875 8.621094 11.871094 8.125 C 14.511719 7.136719 18.496094 6.46875 23.816406 6.46875 Z M 23.816406 6.46875 "/>
<path style=" stroke:none;fill-rule:nonzero;fill:url(#linear3);" d="M 23.816406 11.289062 C 20.515625 11.289062 17.859375 13.945312 17.859375 17.242188 C 17.859375 19.84375 19.511719 22.046875 21.832031 22.859375 L 21.832031 30.144531 C 21.832031 31.242188 22.675781 32.128906 23.722656 32.128906 L 23.90625 32.128906 C 24.957031 32.128906 25.800781 31.242188 25.800781 30.144531 L 25.800781 22.859375 C 28.117188 22.046875 29.769531 19.84375 29.769531 17.242188 C 29.769531 13.945312 27.113281 11.289062 23.816406 11.289062 Z M 23.816406 11.289062 "/>
<path style=" stroke:none;fill-rule:nonzero;fill:rgb(0%,0%,0%);fill-opacity:0.235294;" d="M 23.816406 11.289062 C 20.515625 11.289062 17.859375 13.945312 17.859375 17.242188 C 17.859375 17.410156 17.867188 17.578125 17.882812 17.742188 C 18.132812 14.675781 20.683594 12.28125 23.816406 12.28125 C 26.945312 12.28125 29.496094 14.675781 29.746094 17.742188 C 29.761719 17.578125 29.769531 17.410156 29.769531 17.242188 C 29.769531 13.945312 27.113281 11.289062 23.816406 11.289062 Z M 23.816406 11.289062 "/>
<path style=" stroke:none;fill-rule:nonzero;fill:rgb(100%,100%,100%);fill-opacity:0.392157;" d="M 17.882812 17.582031 C 17.867188 17.746094 17.859375 17.910156 17.859375 18.078125 C 17.859375 20.679688 19.511719 22.878906 21.832031 23.695312 L 21.832031 22.703125 C 19.664062 21.941406 18.078125 19.964844 17.882812 17.582031 Z M 29.746094 17.582031 C 29.554688 19.964844 27.96875 21.941406 25.800781 22.703125 L 25.800781 23.695312 C 28.117188 22.878906 29.769531 20.679688 29.769531 18.078125 C 29.769531 17.910156 29.761719 17.746094 29.746094 17.582031 Z M 21.832031 29.984375 L 21.832031 30.976562 C 21.832031 32.074219 22.675781 32.960938 23.722656 32.960938 L 23.90625 32.960938 C 24.957031 32.960938 25.800781 32.074219 25.800781 30.976562 L 25.800781 29.984375 C 25.800781 31.082031 24.957031 31.96875 23.90625 31.96875 L 23.722656 31.96875 C 22.675781 31.96875 21.832031 31.082031 21.832031 29.984375 Z M 21.832031 29.984375 "/>
<path style="fill:none;stroke-width:11.338583;stroke-linecap:round;stroke-linejoin:round;stroke:rgb(12.941176%,12.941176%,12.941176%);stroke-opacity:1;stroke-miterlimit:4;" d="M 960.065811 455.074659 C 827.007649 455.074659 719.931259 562.151049 719.931259 695.051745 C 719.931259 799.923621 786.539072 888.734039 880.073449 921.486817 L 880.073449 1215.159564 C 880.073449 1259.407308 914.085949 1295.151926 956.286644 1295.151926 L 963.687512 1295.151926 C 1006.045672 1295.151926 1040.058173 1259.407308 1040.058173 1215.159564 L 1040.058173 921.486817 C 1133.435084 888.734039 1200.042897 799.923621 1200.042897 695.051745 C 1200.042897 562.151049 1092.966507 455.074659 960.065811 455.074659 Z M 960.065811 455.074659 " transform="matrix(0.0248071,0,0,0.0248071,0,0)"/>
</g>
</svg>
